X: 2421
M: C
L: 1/8
K: C
(3(G,A,B,) |\
fgaf ec'af | ecdB c2 :|
|: uE2 |\
vA4- ABcd | veA zB cdez |\
vfA zv^c defz | eA zB cdez |\
!ff!vdB z2 {B,C}DB, zd | !p!vc!ff!Az2 {A,B,}CA, zuc |\
|: G2 |\
c4- cdef | g2ec GE zg |\
a2fc AF za | g2ec GE zg |\
f2GB dfag | e2CE Gcfe |\
d2DG BedB | cEGe c2 :|


